X: 38593
T: Stone Of Destiny
R: reel
M: 4/4
K: Gmajor
|:"G"BddB G2Bd|d2 Bd "C"edBA|"G"BddB GABd|gedB "D"BA A>e|
"G"edBA BGGA|BGAG "C"EGG2|"G"DG (3GFG DGBe|"D"dBAB "G"G2 z2:|
|:"G"edBA BGGA|BGAG "C"EGG>e|"G"edBA BGGA|BddB "D"A2 ze|
"G"edBA BGGA|BGAG "C"EGG2|"G"DG(3GFG DGBe|"D"dBAB "G"G2 z2:|

